X:1
T:Title
%%score 1 { 2 | 3 }
L:1/8
Q:1/4=105
M:4/4
K:Ab
V:1 treble nm="Grand Piano, Soprano"
V:2 bass nm="Choir Pad, Hark! From Above"
V:3 bass 
V:1
 [Ec]2 [Ec]2 [DB]2 [DB]2 | [CA]2 [EG]>[DF] [CE]4 | [DF]2 [FA]2 [FA]2 [EG]>[DF] | %3
w: By~William~Howard~Doane * * *|||
 [CE]2 [Ec]2 [EB]4 | [Ec]2 [Ec]2 [DB]2 [DB]2 | [CA]2 [EG]>[DF] [CE]4 | %6
w: |||
 [DF]2 [EA]>[FB] [Ec]2 [DB]2 | [CA]6 z2 | [EB]2 [EB]>[EB] [DB]2 [Ec]2 | [CA]2 [EA]2 [EA]4 | %10
w: ||||
 [Fd]2 [Fd]>[Fd] [Ed]2 [Ee]2 | [Ec]2 [Ec]2 [EB]4 | [Ec]2 [Ec]2 [DB]2 [DB]2 | %13
w: |||
 [CA]2 [EG]>[DF] [CE]4 | [DF]2 [EA]>[FB] [Ec]2 [DB]2 | [CA]8 |] %16
w: |||
V:2
 A,2 A,2 G,2 G,2 | A,2 A,>A, A,4 | A,2 A,2 A,2 A,>A, | A,2 A,2 G,4 | A,2 A,2 G,2 G,2 | %5
 A,2 A,>A, A,4 | A,2 A,>A, A,2 G,2 | A,6 z2 | G,2 G,>G, G,2 G,2 | A,2 C2 C4 | A,2 A,>A, G,2 B,2 | %11
 A,2 A,2 G,4 | A,2 A,2 G,2 G,2 | A,2 A,>A, A,4 | A,2 A,>A, A,2 G,2 | A,8 |] %16
V:3
 A,,2 A,,2 E,2 E,2 | A,,2 D,>D, A,,4 | D,2 D,2 D,2 D,>F, | z2 A,,2 E,4 | A,,2 A,,2 E,2 E,2 | %5
 A,,2 D,>D, A,,4 | D,2 C,>D, E,2 E,2 | A,,6 z2 | E,2 E,>E, E,2 E,2 | A,,2 A,,2 A,,4 | %10
 D,2 D,>D, E,2 G,2 | z2 C,2 E,4 | A,,2 A,,2 E,2 E,2 | A,,2 D,>D, A,,4 | D,2 C,>D, E,2 E,2 | A,,8 |] %16

